**kern	**kern	**kern
*MM76	*MM76	*MM76
*k[b-]	*k[b-]	*k[b-]
*M2/2	*M2/2	*M2/2
*tb64	*tb64	*tb64
=1	=1	=1
2c	1r	1r
4F	.	.
4G	.	.
=2	=2	=2
4A	1r	1r
8G	.	.
8A	.	.
4B-	.	.
4A	.	.
=3	=3	=3
4G	1r	1r
4c	.	.
4F	.	.
[4B-	.	.
=4	=4	=4
4B-]	1r	1r
4A	.	.
2GT	.	.
=5	=5	=5
8F	2f	1r
8G	.	.
2A	.	.
.	4c	.
4G	4d	.
=6	=6	=6
8C	4e	1r
8E	.	.
8F	8d	.
8G	8e	.
8A	4f	.
8B	.	.
4c	4e	.
=7	=7	=7
4B	4d	1r
4B-	4g	.
4A	4c	.
4A-	[4f	.
=8	=8	=8
8G	4f]	1r
8B	.	.
2c	4e	.
.	2dM	.
[4B-	.	.
=9	=9	=9
4B-]	8c	1r
.	8e	.
[4A	8f	.
.	8a	.
8A]	[2b-	.
8F	.	.
8G	.	.
8e	.	.
=10	=10	=10
4f	8b-]	1r
.	8g	.
[4F	8a	.
.	8dd	.
8F]	4g	.
8D	.	.
8E	[4cc	.
8A	.	.
=11	=11	=11
4D	8cc]	1r
.	8a	.
[4G	8b	.
.	8dd	.
8G]	8ee	.
8E	8cc	.
8F	[4a	.
8A	.	.
=12	=12	=12
8B-	4a]	1r
8D	.	.
8E	2gM	.
8G	.	.
8A	.	.
8C	.	.
8D	[4f	.
8F	.	.
=13	=13	=13
4G	8f]	1r
.	8e	.
2F	8b-	.
.	8dd	.
.	8b-M	.
.	8g	.
4E	8cc	.
.	8b-	.
=14	=14	=14
4F	8a	2cc
.	8A	.
8G	8B-	.
8A	8c	.
8B-	4d	4f
8BB-	.	.
8AA	4e	4g
8GG	.	.
=15	=15	=15
[2FF	8f	4a
.	8c	.
.	8B-	8g
.	8c	8a
8FF]	8d	4b-
8GG	8e	.
8AA	[4f	4a
8FF	.	.
=16	=16	=16
8BB-	4f]	4g
8BB	.	.
4C	8e	4cc
.	[8e-	.
4.D	8e-]	4f
.	8e-	.
.	8d	[4b-
8E	8d-	.
=17	=17	=17
4.F	8c	4b-]
.	8e	.
.	2f	4a
8A	.	.
8B-	.	2gM
8G	.	.
8c	[4e-	.
8B-	.	.
=18	=18	=18
8A	4e-]	[2f
8F	.	.
8r	8d	.
8B-	8d-	.
4A	[2c	8f]
.	.	8e
4G	.	8f
.	.	8g
=19	=19	=19
2F	2c_	8a
.	.	8b
.	.	8cc
.	.	8dd
4C	8c]	4.ee
.	8d	.
4D	8e	.
.	8f	8dd
=20	=20	=20
4E	4g	8cc
.	.	8c
8D	[2c	8f
8E	.	8g
4F	.	8a
.	.	8b
4E	8c]	[4cc
.	8e	.
=21	=21	=21
4D	4.f	8cc[
.	.	8cc
4G	.	2b-
.	8f	.
4C	8e	.
.	8d	.
[4F	4c	8a
.	.	8a-
=22	=22	=22
4F]	8B	8g
.	8A-	8b
4E	8G	2cc
.	8e	.
2DM	8f	.
.	8a-	.
.	8g	4b
.	8f	.
=23	=23	=23
4C	[4e	8cc
.	.	8b-
4c	8e]	2a
.	8e-	.
4B	8d	.
.	8f	.
4B-	8e	[4g
.	8d	.
=24	=24	=24
4A	8c#	8g]
.	8d	8f
8G	8e	4r
8F	8f	.
8E	8g	4r
8D	8b-	.
4C#	8a	[4ee
.	8g	.
=25	=25	=25
4D	8f	4ee]
.	8g	.
4F	2a	8dd
.	.	8cc
4G	.	8b-
.	.	8cc
4BB-	8g	[4dd
.	8f	.
=26	=26	=26
4C	8e	4dd]
.	8f	.
4E	2g	8cc
.	.	8b-
4F	.	8a
.	.	8b-
4AA	8f	[4cc
.	8e	.
=27	=27	=27
4BB-	8d	4cc]
.	8e	.
4D	2f	8b-
.	.	8a
4E	.	8g
.	.	8a
4G	8e	[4b-
.	8d	.
=28	=28	=28
2A	8c#	4b-]
.	8d	.
.	[4e	8a
.	.	8g
4D	8e]	4.f
.	8d	.
4E	[4c#	.
.	.	8g
=29	=29	=29
4F	8c#]	2a
.	8A	.
8E	[4d	.
8F#	.	.
4G	8d]	[2b-
.	8f	.
4F	8e	.
.	8d	.
=30	=30	=30
4E	4c#	8b-]
.	.	8a
4A	4c	8ee
.	.	[8g
4D	4B	8g]
.	.	8f
[4G	4B-	8e
.	.	8d
=31	=31	=31
4G]	8A	8c#
.	8c#	8e
4F	2d	8f
.	.	8b-
2EM	.	8g
.	.	8e
.	4c#	8a
.	.	8g
=32	=32	=32
8D	2d	8f
8E	.	8g
8F	.	[4a
8E	.	.
8D	4A	4a]
8C	.	.
8D	4B	4g#
8E	.	.
=33	=33	=33
8AA	4c	[2a
8C	.	.
8D	8B	.
8E	8c#	.
8F#	4d	8a]
8G#	.	8b
4A	4c	8cc
.	.	8dd
=34	=34	=34
4G#	4B	8ee
.	.	8dd
4G	4e	8cc
.	.	8b
4F#	4A	8a
.	.	8cc
4F	[4d	8b
.	.	8a
=35	=35	=35
8E	4d]	4g#
8G#	.	.
2A	4c	4r
.	2BM	2r
[4G	.	.
=36	=36	=36
4G]	8c#	2a
.	8e	.
8A	8c#	.
8G	8B	.
4F	8A	4d
.	4d	.
8G	.	4e
8A	8c#	.
=37	=37	=37
8D	[2d	4f
8B-	.	.
8G	.	8e
8F#	.	8f#
4E	8d]	4g
.	8c#	.
8F	4d	4f
8G	.	.
=38	=38	=38
8A	4c#	4e
4G	.	.
.	4c	4a
8F#	.	.
8G	4B	4d
8F	.	.
8E-	4B-	[4g
8D	.	.
=39	=39	=39
8C#	8A	4g]
8AA	8c#	.
8BB-	2d	4f
8F	.	.
8G	.	2eM
8E	.	.
8A	[4c	.
8G	.	.
=40	=40	=40
8F#	4c]	8d
8D	.	8f#
8E-	4B-	2g
8BB-	.	.
8C	2AM	.
8AA	.	.
8D	.	[4f
8C	.	.
=41	=41	=41
8BB	8G	4f]
8GG	8B	.
8AA	2c	4e
8E	.	.
8F	.	2dM
8D	.	.
8G	[4B-	.
8F	.	.
=42	=42	=42
8E	4B-]	8c
8C	.	8e
8D	4A	[4f
8AA	.	.
8BB-	2GM	4f]
8GG	.	.
8C	.	[4e-
8BB-	.	.
=43	=43	=43
4AA	8F	4e-]
.	8F#	.
8BB-	2G	4d
8BB	.	.
4.C	.	8e-
.	.	8e
.	8A-	[4f
8CC	8A	.
=44	=44	=44
4.DD	4.B-	8f]
.	.	8f#
.	.	8g
[8D	8A	8f
8D]	8G#	4e
8C	8e	.
8BB	[4dd	8r
8AA	.	8ff
=45	=45	=45
8GG#	4dd]	8ee
8E	.	8gg#
8F	4cc	2aa
8c	.	.
8d	2b	.
8B	.	.
8e	.	[4gg
8d	.	.
=46	=46	=46
8c#	8a	4gg]
8A	8cc#	.
8B-	2dd	4ff
8F	.	.
8G	.	2eeM
8E	.	.
8A	[4cc	.
8G	.	.
=47	=47	=47
8F#	4cc]	8dd
8d	.	8ff#
8e-	4b-	[4gg
8B-	.	.
8c	2a	4gg]
8A	.	.
8d	.	[4ff
8c	.	.
=48	=48	=48
8B	8g	4ff]
8G	8b	.
8A	2cc	4ee
8E	.	.
8F	.	2dd
8D	.	.
8G	8b	.
8F	8a	.
=49	=49	=49
8E	8g	2ee
8D	8g#	.
8C	8a	.
8BB	8b	.
8AA	8cc	4a
8F	4a	.
8D	.	4b
8E	16g#	.
.	16f#	.
=50	=50	=50
8AA	4e	4cc
4A	.	.
.	[4a	8b
8G	.	8cc#
8F#	8a]	4dd
8G#	4b	.
4A	.	4cc
.	[8a	.
=51	=51	=51
4.E	8a]	4b
.	4g#	.
.	.	4ee
8C#	4g	.
4D	.	4a
.	4f#	.
8B	.	[4dd
8A	8f	.
=52	=52	=52
8G#	8e	4dd]
8E	8g#	.
8F	4.a	4cc
8D	.	.
8E	.	4b
8F#	16g#	.
.	16a	.
8G#	[4b	8ee
8E	.	8dd
=53	=53	=53
4A	4b]	8cc
.	.	8dd
4C	8a	2ee
.	8g	.
4D	8f	.
.	8g	.
4F	[4a	8dd
.	.	8cc
=54	=54	=54
4G	4a]	8b
.	.	8cc
4BB	8g	2dd
.	8f	.
4C	8e	.
.	8f	.
4E	[4g	8cc
.	.	8b
=55	=55	=55
4F	4g]	8a
.	.	8b
4AA	8f	2cc
.	8e	.
4BB	8d	.
.	8e	.
[4D	4f	8b
.	.	8a
=56	=56	=56
8D]	2e	4g#
8C	.	.
8D	.	4r
8E	.	.
8F	4A	2r
8F#	.	.
8G	4B	.
8G#	.	.
=57	=57	=57
8A	4c	2a
8FF	.	.
8GG	8B	.
8AA	8c#	.
8BB-	4d	4d
8BB	.	.
8C	4c	4e
8AA	.	.
=58	=58	=58
4D	8c	4f
.	8B	.
8C	4e	8e
8AA	.	8f#
8BB	4A	4g
8C#	.	.
8D	[4d	4f
8AA	.	.
=59	=59	=59
8GG#	4d]	4e
8E	.	.
8F	4c	4a
8F#	.	.
8G	2B	4d
8FT	.	.
8E	.	[4g
8D	.	.
=60	=60	=60
8C#	4A	4g]
8AA	.	.
8BB-	2d	4f
8AA	.	.
8GG	.	2e
8G	.	.
8A	[4c	.
8G	.	.
=61	=61	=61
8F#	8c]	[2d
8D	8F#	.
8E	8G	.
8F#	8A	.
8G	4B-	2d_
8D	.	.
8BB-	8D	.
8GG	8E	.
=62	=62	=62
2D	8F#	8d]
.	16G	8e-
.	16A	.
.	8B-	8d
.	8A	8c
4GG	4G	4B-
4AA	4r	4r
=63	=63	=63
4BB-	1r	1r
8AA	.	.
8BB	.	.
4C	.	.
4BB-	.	.
=64	=64	=64
4AA	1r	1r
4D	.	.
4GG	.	.
[4C	.	.
=65	=65	=65
4C]	1r	1r
4BB-	.	.
2AAM	.	.
=66	=66	=66
8GG	2G	1r
8AA	.	.
8BB-	.	.
8AA	.	.
8GG	4D	.
8FF	.	.
8GG	4E	.
8AA	.	.
=67	=67	=67
8DD	4F	1r
4D	.	.
.	8E	.
8C	8F#	.
8BB	4G	.
8C#	.	.
4D	4F	.
=68	=68	=68
4C#	4E	1r
4C	4A	.
4BB	4D	.
4BB-	[4G	.
=69	=69	=69
4AA	4G]	1r
2D	4F	.
.	2E	.
[4C	.	.
=70	=70	=70
4C]	8F#	2d
.	8G	.
8D	8F#	.
8C	8E	.
8BB-	[2D	4G
8AA	.	.
8GG	.	4A
8FF#	.	.
=71	=71	=71
[1GG	8D]	4B-
.	4G	.
.	.	8A
.	8F	8B
.	8E	4c
.	8F#	.
.	[4G	4B-
=72	=72	=72
1GG_	8G]	4A
.	4F#	.
.	.	4d
.	4F	.
.	.	4G
.	4E	.
.	.	[4c
.	8E-	.
=73	=73	=73
8GG]	8D	4c]
8AA	8F#	.
8BB-	2G	4B-
8C	.	.
8D	.	8A
8E	.	8c#
8F	4F	[4d
8GG#	.	.
=74	=74	=74
8AA	8E	4d]
8BB	8G#	.
8C	4A	4c
8D	.	.
8E	4G#	8B
8F	.	8ff
8G	[4b-	8ee
8E	.	8dd
=75	=75	=75
8A	4b-]	8cc
8G	.	8cc#
8F	4a	2dd
8F#	.	.
4G	8b-	.
.	8b	.
8C	[4cc	8ee-
8BB	.	8ee
=76	=76	=76
4AA	4cc]	8ff
.	.	8ff#
8B-	4dd	[2gg
8B	.	.
4c	8ee-	.
.	8ee	.
4d	4ff	8gg]
.	.	8gg#
=77	=77	=77
8c#	8ee	4aa
8f	8dd	.
8e	8cc#	[4a
8d	8b	.
8c#	4a	8a]
8B	.	8b
8A	[4e	8cc#
8G	.	8ee
=78	=78	=78
8F	4e]	8aa
8G	.	8r
2A	8d	8f
.	8c	8f#
.	8B-	8g
.	8c	8a
8G	[4d	8b-
8F	.	8dd
=79	=79	=79
8E	4d]	8gg
8F	.	8r
2G	8c	8e-
.	8B-	8e
.	8A	8f
.	8B-	8g
8F	[4c	8a-
8E-	.	8cc
=80	=80	=80
8D	4c]	8ff
8E	.	8r
2F	8B-	4d
.	8A	.
.	8G	8e
.	8A	8f
8E	[4B-	8g
8D	.	8b-
=81	=81	=81
8C#	4B-]	8ee
8D	.	8d
[4E	8A	8c#
.	8G	8B
8E]	4F	[4A
4D	.	.
.	4E	8A]
[8C	.	8r
=82	=82	=82
8C]	8F#	4d
8BB-	8G	.
8AA	8A	[4g
8GG	8B-	.
8D	4A	8g]
4DD	.	8f
.	[4a	8e
16EE	.	8d
16FF#	.	.
=83	=83	=83
8GG	8a]	4.b-
4e	16g	.
.	16f#	.
.	[4g	.
8d	.	16cc
.	.	16b-
8c#	8g]	4.a
8A	16f	.
.	16e	.
8d	[4f	.
8c	.	16b-
.	.	16a
=84	=84	=84
8B	8f]	4.g
4c	16e	.
.	16d	.
.	[4e	.
8B-	.	16a
.	.	16g
8A	8e]	4.f
8F	16d	.
.	16c#	.
8B-	[4d	.
8A	.	16g
.	.	16f
=85	=85	=85
4G	8d]	8e
.	4c	8e-
4F#	.	[4d
.	16B-	.
.	16A	.
4G	8B-	8d]
.	4A	8r
[4F	.	4r
.	16B	.
.	16c	.
=86	=86	=86
8F]	4B	2gg
8E	.	.
8F	4r	.
8G	.	.
8A-	2r	4cc
8A	.	.
8B-	.	4dd
8B	.	.
=87	=87	=87
8c	2cc	4ee
8AA	.	.
8BB-	.	8dd
8C	.	8ee
8D	4f	4ff
8d	.	.
8e	4g	4ee
8c	.	.
=88	=88	=88
8f	4a	4dd
8F	.	.
8E	8g	4gg
8C	8a	.
8D	4b-	4cc
8E	.	.
8F	4a	[4ff
8d	.	.
=89	=89	=89
8B-	4g	4ff]
8B	.	.
8c	4cc	4ee
8A	.	.
8B-	4f	2dd
8A	.	.
8G	[4b-	.
8F	.	.
=90	=91	=90
8E	4b-]	[2cc
8C	.	.
2F	4a	.
.	[2gM	8cc]
.	.	8b-
4E	.	8a
.	.	8g
=91	=92	=91
2F	8g]	4.a
.	8f	.
.	8e	.
.	8d	8b
4C	8e	8cc
.	8c	8r
4D	8B-	4r
.	8A	.
=92	=92	=92
4E	8B	2cc
.	8A	.
8D	8B-	.
8E	16c	.
.	16B-	.
4F	8A	4f
.	[8d	.
4E	8d]	4g
.	8c#	.
=93	=93	=93
4D	8f	4a
.	16d	.
.	16c	.
[4G	8B-	8g
.	8c	8a
8G]	8d	4b-
8E	4e	.
[4F	.	4a
.	16d	.
.	16c	.
=94	=94	=94
4F]	8B	4g
.	8A	.
4E	8G	[4cc
.	8G#	.
2DT	8A	8cc]
.	4a	8f
.	.	[4b-
.	16g	.
.	16f	.
=95	=95	=95
[2C	4e	4b-]
.	2f	4a
8C]	.	2g
8d	.	.
8c	[4e-	.
8B-	.	.
=96	=96	=96
8A	4.e-]	[1f
8F	.	.
8G	.	.
8A	16d	.
.	16c	.
8B-	2B- 2d	.
8BB-	.	.
8D	.	.
8BB-	.	.
=97	=97	=97
1F	8B- 8d	1f]
.	8B- 8d	.
.	8A 8c	.
.	8G 8B-	.
.	2A 2c	.
==	==	==
*-	*-	*-
